X: 10198
T: Diplodocus, The
R: jig
M: 6/8
K: Amixolydian
cAA edB|cAA ABc|def g3|a2e fed|
c2A BAG|EAA AGE|DEF G2A|BAA A3:|
efe e2d|cAB AGE|g3 gef|g2g fed|
efe e2d|cAB AGE|DEF G2A|BAA A3:|
aAA Aaf|g3 efg|fdd def|g2g efg|
aAA Aaf|g3 efg|fed e2d|cAA A3:|

